X: 20254
T: Joe McGann's Fiddle
R: hornpipe
M: 4/4
K: Dmajor
f|A>Bd>e f>ed>c|B>dg>B A2d>c|B>dg>B A>df<a|g>fe>d c<ea2|
A>Bd>e f>ed>c|B>dg>B A2d>c|B>eg>e f<af>d|e2d2 d3:|
|:g|f>ga>g f>ed>c|B<dB<g f>dA>d|B>dg>B A>df>a|g>fe>d c<ea2|
f>ga>g f>ed>c|B<dB<g f>dA>d|B>dg>e f<af>d|e2d2 d3:|
|:a|A>df>d A>eg>e|f>da>f e>ca>c|B>dg>B A>df<a|g>fe>d c<ea2|
A>df>d A>eg>e|f>da>f e>ca>c|B>dg>e f<af>d|e2d2 d3:|
|:(3efg|a>df<a g>dB>d|g>Bd<g f>dA>d|g>dB>g f>dA>f|e>d(3Bcd e>A(3efg|
a>df<a g>dB>d|g>Bd<g f>dA>d|B>dg>e f<af>d|e2d2 d2:|

